svg/Pictogram/pictograms-nps-horseback_riding.svg

<?xml version="1.0" encoding="UTF-8" standalone="no"?>
<!-- Generator: Adobe Illustrator 13.0.2, SVG Export Plug-In . SVG Version: 6.00 Build 14948)  -->
<svg
   xmlns:dc="http://purl.org/dc/elements/1.1/"
   xmlns:cc="http://creativecommons.org/ns#"
   xmlns:rdf="http://www.w3.org/1999/02/22-rdf-syntax-ns#"
   xmlns:svg="http://www.w3.org/2000/svg"
   xmlns="http://www.w3.org/2000/svg"
   xmlns:sodipodi="http://sodipodi.sourceforge.net/DTD/sodipodi-0.dtd"
   xmlns:inkscape="http://www.inkscape.org/namespaces/inkscape"
   version="1.1"
   id="Layer_1"
   x="0px"
   y="0px"
   width="123.547px"
   height="123.539px"
   viewBox="-0.258 -0.548 123.547 123.539"
   style="enable-background:new -0.258 -0.548 123.547 123.539;"
   xml:space="preserve"
   sodipodi:version="0.32"
   inkscape:version="0.46"
   sodipodi:docname="pictograms-nps-horseback_riding-2.svg"
   inkscape:output_extension="org.inkscape.output.svg.inkscape"><metadata
   id="metadata17898"><rdf:RDF><cc:Work
       rdf:about=""><dc:format>image/svg+xml</dc:format><dc:type
         rdf:resource="http://purl.org/dc/dcmitype/StillImage" /></cc:Work></rdf:RDF></metadata><defs
   id="defs17896"><inkscape:perspective
     sodipodi:type="inkscape:persp3d"
     inkscape:vp_x="0 : 61.769501 : 1"
     inkscape:vp_y="0 : 1000 : 0"
     inkscape:vp_z="123.547 : 61.769501 : 1"
     inkscape:persp3d-origin="61.773499 : 41.179667 : 1"
     id="perspective17900" /></defs><sodipodi:namedview
   inkscape:window-height="700"
   inkscape:window-width="727"
   inkscape:pageshadow="2"
   inkscape:pageopacity="0.0"
   guidetolerance="10.0"
   gridtolerance="10.0"
   objecttolerance="10.0"
   borderopacity="1.0"
   bordercolor="#666666"
   pagecolor="#ffffff"
   id="base"
   showgrid="false"
   inkscape:zoom="0.93897473"
   inkscape:cx="168.61768"
   inkscape:cy="47.747459"
   inkscape:window-x="0"
   inkscape:window-y="37"
   inkscape:current-layer="Layer_1" />

<path
   d="M 14.536172,1.5006106 C 7.7602151,1.5006106 2.2516135,7.0217603 2.2516135,13.797717 L 2.2516135,108.19683 C 2.2516135,114.97278 7.7602151,120.48139 14.536172,120.48139 L 108.92274,120.48139 C 115.71124,120.48139 121.23239,114.97278 121.23239,108.19683 L 121.23239,13.797717 C 121.23239,7.0217603 115.71124,1.5006106 108.92274,1.5006106 L 14.536172,1.5006106 z"
   style="fill:#ffffff;fill-opacity:1;fill-rule:nonzero;stroke:none"
   id="path10159" /><path
   d="M 108.92274,122.991 C 117.10408,122.991 123.742,116.37817 123.742,108.19683 L 123.742,13.797717 C 123.742,5.6163767 117.10408,-1.0090029 108.92274,-1.0090029 L 14.536172,-1.0090029 C 6.3548316,-1.0090029 -0.258,5.6163767 -0.258,13.797717 L -0.258,108.19683 C -0.258,116.37817 6.3548316,122.991 14.536172,122.991 L 108.92274,122.991 z"
   style="fill:#000000;fill-opacity:1;fill-rule:nonzero;stroke:none"
   id="path10161" /><path
   d="M 51.941961,23.522469 C 55.882054,23.522469 59.069263,20.33526 59.069263,16.407715 C 59.069263,12.467622 55.882054,9.2804124 51.941961,9.2804124 C 48.014416,9.2804124 44.827206,12.467622 44.827206,16.407715 C 44.827206,20.33526 48.014416,23.522469 51.941961,23.522469"
   style="fill:#ffffff;fill-opacity:1;fill-rule:nonzero;stroke:none"
   id="path10163" /><path
   d="M 12.139491,58.757443 C 12.139491,52.972783 16.81992,48.267258 22.604579,48.267258 L 44.689178,48.267258 L 44.689178,32.419049 C 44.689178,28.466408 47.863839,25.279198 51.81648,25.279198 C 55.756573,25.279198 58.943782,28.466408 58.943782,32.419049 L 58.943782,34.865922 L 69.459063,37.563757 C 71.303629,37.977843 72.470599,39.809861 72.056513,41.654427 C 71.642427,43.511541 69.797861,44.665963 67.940747,44.251876 L 58.943782,42.143801 L 58.943782,48.267258 L 69.534351,48.267258 L 98.507839,18.302473 L 97.642023,26.094823 L 111.90918,35.581162 C 114.25566,36.923805 115.12148,39.960437 113.76629,42.319474 C 112.71225,44.201684 110.60418,45.105145 108.62158,44.741251 L 107.46716,44.527934 C 106.09942,50.086728 101.08019,54.177398 95.119861,54.177398 C 93.940343,54.177398 92.798469,54.001725 91.719335,53.713119 L 80.902901,75.797718 L 80.902901,106.08875 C 80.902901,108.6862 78.769729,110.79428 76.172279,110.79428 C 73.574829,110.79428 71.466754,108.6862 71.466754,106.08875 L 71.466754,75.107574 L 47.625426,75.107574 L 43.359083,82.41055 L 52.280759,103.67952 C 53.585758,105.96327 52.770133,108.82423 50.511481,110.10413 C 48.240281,111.39659 45.366773,110.59351 44.074322,108.32231 L 33.659426,83.778289 L 33.659426,75.960843 L 29.004093,83.288914 L 29.004093,106.08875 C 29.004093,108.6862 26.896018,110.79428 24.298568,110.79428 C 21.701118,110.79428 19.567947,108.6862 19.567947,106.08875 L 19.567947,79.762907 L 23.457848,73.664547 L 23.457848,53.010428 L 19.593043,58.945664 L 19.593043,76.136516 L 12.139491,76.136516 L 12.139491,58.757443 z M 104.84461,44.026011 L 97.303225,42.582984 L 92.911401,51.30389 C 93.626641,51.479563 94.366977,51.554852 95.119861,51.554852 C 99.80029,51.554852 103.72784,48.367643 104.84461,44.026011"
   style="fill:#ffffff;fill-opacity:1;fill-rule:nonzero;stroke:none"
   id="path10165" /></svg>

<svg xmlns="http://www.w3.org/2000/svg" width="123.55" height="123.54" viewBox="-0.258 -0.548 123.547 123.539" enable-background="new -0.258 -0.548 123.547 123.539"><path d="m14.536 1.501c-6.776 0-12.285 5.521-12.285 12.297v94.4c0 6.776 5.509 12.285 12.285 12.285h94.39c6.788 0 12.31-5.509 12.31-12.285v-94.4c0-6.776-5.521-12.297-12.31-12.297h-94.39" fill="#fff"/><path d="m108.92 122.99c8.181 0 14.819-6.613 14.819-14.794v-94.4c0-8.181-6.638-14.807-14.819-14.807h-94.39c-8.181 0-14.794 6.625-14.794 14.807v94.4c0 8.181 6.613 14.794 14.794 14.794h94.39"/><g fill="#fff"><path d="m51.942 23.522c3.94 0 7.127-3.187 7.127-7.115 0-3.94-3.187-7.127-7.127-7.127-3.928 0-7.115 3.187-7.115 7.127 0 3.928 3.187 7.115 7.115 7.115"/><path d="m12.139 58.757c0-5.785 4.68-10.49 10.465-10.49h22.08v-15.848c0-3.953 3.175-7.14 7.127-7.14 3.94 0 7.127 3.187 7.127 7.14v2.447l10.515 2.698c1.845.414 3.01 2.246 2.597 4.091-.414 1.857-2.259 3.01-4.116 2.597l-8.997-2.108v6.123h10.591l28.973-29.965-.866 7.792 14.267 9.486c2.346 1.343 3.212 4.379 1.857 6.738-1.054 1.882-3.162 2.786-5.145 2.422l-1.154-.213c-1.368 5.559-6.387 9.649-12.347 9.649-1.18 0-2.321-.176-3.401-.464l-10.816 22.08v30.29c0 2.597-2.133 4.706-4.731 4.706-2.597 0-4.706-2.108-4.706-4.706v-30.981h-23.841l-4.266 7.303 8.922 21.269c1.305 2.284.489 5.145-1.769 6.425-2.271 1.292-5.145.489-6.437-1.782l-10.415-24.544v-7.817l-4.655 7.328v22.8c0 2.597-2.108 4.706-4.706 4.706-2.597 0-4.731-2.108-4.731-4.706v-26.326l3.89-6.098v-20.654l-3.865 5.935v17.191h-7.454v-17.379m92.71-14.731l-7.541-1.443-4.392 8.721c.715.176 1.456.251 2.208.251 4.68 0 8.608-3.187 9.725-7.529"/></g></svg>
